www/assets/icons/catching_pokemon.svg

<svg xmlns="http://www.w3.org/2000/svg" width="24" height="24" viewBox="0 0 24 24" fill='currentColor'><path d="M14.5 12a2.5 2.5 0 0 1-5 0 2.5 2.5 0 0 1 5 0m7.5 0c0 5.52-4.48 10-10 10S2 17.52 2 12 6.48 2 12 2s10 4.48 10 10m-2 0h-4c0-2.21-1.79-4-4-4s-4 1.79-4 4H4c0 4.41 3.59 8 8 8s8-3.59 8-8"/></svg>

<svg width="24" height="24" viewBox="0 0 24 24" xmlns="http://www.w3.org/2000/svg" fill='currentColor'><path d="M14.5 12C14.5 13.38 13.38 14.5 12 14.5C10.62 14.5 9.5 13.38 9.5 12C9.5 10.62 10.62 9.5 12 9.5C13.38 9.5 14.5 10.62 14.5 12ZM22 12C22 17.52 17.52 22 12 22C6.48 22 2 17.52 2 12C2 6.48 6.48 2 12 2C17.52 2 22 6.48 22 12ZM20 12H16C16 9.79 14.21 8 12 8C9.79 8 8 9.79 8 12H4C4 16.41 7.59 20 12 20C16.41 20 20 16.41 20 12Z"/></svg>
